X: 3386
T: FOR TONIGHT WE'LL MERRY MERRY BE
%R: march
B: James Kerr "Merry Melodies" v.3 p.42 #386
Z: 2016 John Chambers <jc:trillian.mit.edu>
M: 2/4
L: 1/16
K: D
uf2 |\
d2A2F2A2 | d3dd2d2 | e3ee2e2 | (f4 d2)f2 |\
d2A2F2A2 | dddd d2d2 | eeee e2e2 | (f4 d2) |]
|: uA2 |\
f3ff2a2 | (ag)gg g4 | e3ee2g2 | (gf)ff f4 |\
d3dd2f2 | feee g2e2 | d2c2B2c2 | (e4 d2) :|

%%sep 1 1 500
%%sep 1 1 500

